inst/assets/svg/wi-cloud.svg

<?xml version="1.0" encoding="UTF-8"?>
<svg xmlns="http://www.w3.org/2000/svg" xmlns:xlink="http://www.w3.org/1999/xlink" width="30pt" height="30pt" viewBox="0 0 30 30" version="1.1">
<g id="surface36">
<path style=" stroke:none;fill-rule:nonzero;fill:rgb(0%,0%,0%);fill-opacity:1;" d="M 4.609375 16.878906 C 4.609375 15.730469 4.96875 14.710938 5.691406 13.808594 C 6.410156 12.910156 7.320313 12.328125 8.429688 12.078125 C 8.738281 10.710938 9.449219 9.589844 10.539063 8.710938 C 11.628906 7.828125 12.890625 7.390625 14.300781 7.390625 C 15.679688 7.390625 16.910156 7.820313 17.988281 8.671875 C 19.070313 9.519531 19.769531 10.621094 20.089844 11.960938 L 20.421875 11.960938 C 21.320313 11.960938 22.148438 12.179688 22.910156 12.609375 C 23.671875 13.039063 24.28125 13.640625 24.71875 14.398438 C 25.160156 15.160156 25.390625 15.980469 25.390625 16.878906 C 25.390625 17.761719 25.179688 18.578125 24.761719 19.328125 C 24.339844 20.078125 23.761719 20.679688 23.03125 21.128906 C 22.300781 21.578125 21.488281 21.820313 20.621094 21.851563 L 9.410156 21.851563 C 8.070313 21.789063 6.941406 21.28125 6.011719 20.320313 C 5.078125 19.371094 4.609375 18.21875 4.609375 16.878906 Z M 6.320313 16.878906 C 6.320313 17.75 6.621094 18.5 7.21875 19.140625 C 7.820313 19.78125 8.550781 20.121094 9.410156 20.171875 L 20.601563 20.171875 C 21.460938 20.128906 22.191406 19.78125 22.789063 19.140625 C 23.398438 18.5 23.699219 17.738281 23.699219 16.878906 C 23.699219 16 23.371094 15.25 22.71875 14.609375 C 22.070313 13.96875 21.300781 13.648438 20.398438 13.648438 L 18.800781 13.648438 C 18.691406 13.648438 18.628906 13.589844 18.628906 13.46875 L 18.558594 12.898438 C 18.449219 11.820313 17.980469 10.910156 17.160156 10.179688 C 16.339844 9.449219 15.390625 9.078125 14.300781 9.078125 C 13.210938 9.078125 12.25 9.449219 11.449219 10.179688 C 10.640625 10.910156 10.179688 11.820313 10.078125 12.898438 L 10 13.46875 C 10 13.589844 9.929688 13.648438 9.800781 13.648438 L 9.269531 13.648438 C 8.429688 13.75 7.730469 14.109375 7.171875 14.71875 C 6.609375 15.328125 6.320313 16.050781 6.320313 16.878906 Z M 6.320313 16.878906 "/>
</g>
</svg>

<?xml version="1.0" encoding="utf-8"?>
<!-- Generator: Adobe Illustrator 22.0.1, SVG Export Plug-In . SVG Version: 6.00 Build 0)  -->
<svg version="1.1" id="Layer_1" xmlns="http://www.w3.org/2000/svg" xmlns:xlink="http://www.w3.org/1999/xlink" x="0px" y="0px"
	 viewBox="0 0 30 30" style="enable-background:new 0 0 30 30;" xml:space="preserve">
<path d="M4.61,16.88c0-1.15,0.36-2.17,1.08-3.07c0.72-0.9,1.63-1.48,2.74-1.73c0.31-1.37,1.02-2.49,2.11-3.37s2.35-1.32,3.76-1.32
	c1.38,0,2.61,0.43,3.69,1.28s1.78,1.95,2.1,3.29h0.33c0.9,0,1.73,0.22,2.49,0.65s1.37,1.03,1.81,1.79c0.44,0.76,0.67,1.58,0.67,2.48
	c0,0.88-0.21,1.7-0.63,2.45s-1,1.35-1.73,1.8c-0.73,0.45-1.54,0.69-2.41,0.72H9.41c-1.34-0.06-2.47-0.57-3.4-1.53
	C5.08,19.37,4.61,18.22,4.61,16.88z M6.32,16.88c0,0.87,0.3,1.62,0.9,2.26s1.33,0.98,2.19,1.03h11.19c0.86-0.04,1.59-0.39,2.19-1.03
	c0.61-0.64,0.91-1.4,0.91-2.26c0-0.88-0.33-1.63-0.98-2.27c-0.65-0.64-1.42-0.96-2.32-0.96H18.8c-0.11,0-0.17-0.06-0.17-0.18
	l-0.07-0.57c-0.11-1.08-0.58-1.99-1.4-2.72c-0.82-0.73-1.77-1.1-2.86-1.1c-1.09,0-2.05,0.37-2.85,1.1
	c-0.81,0.73-1.27,1.64-1.37,2.72l-0.08,0.57c0,0.12-0.07,0.18-0.2,0.18H9.27c-0.84,0.1-1.54,0.46-2.1,1.07S6.32,16.05,6.32,16.88z"
	/>
</svg>
